X: 2538
T: Ballygow, The
R: reel
M: 4/4
K: Gmajor
DGGA B2GB|B2GB AGEG|DGGA B2Bc|1 dBGB AG (3EFG:|2 dBAc BGG2||
gedc B3d|B2GB AGED|gedc B3d|BAGB A4|
gd~d2 eB~B2|dBGB AGEG|DGGA B2Bc|dBAc BGG2||

